X: 31847
T: Paul O'Shaughnessy's
R: jig
M: 6/8
K: Aminor
|:G|EAG AGA|BAB GB/c/d|edc Bcd|AGB AG^F|
EAG AGA|BAB GB/c/d|edc Bcd|BAG A2:|
|:B|def fed|eAA ABc|BBB d2 B|cde edc|
def fed|eAA ABc|BBB d2 B|BAG A2:|

